X:3069
T: Malungsdansen
C: Erkers Mats
S: Utlärd av Kalle Almlöf
Z: Karin Arén
M: 3/4
O: Grimsåker, Dalarna
L: 1/8
K: D
v(A2 |: d2) fe/f/ e>d | v(c<e) g2 Tf>e | v(d>f) (a<A) c>e | vd2 BA/B/ v(A2 |
d2) fe/f/ e>d | v(c<e) g2 Tf>e | v(d>f) (a<A) c>e | vd2 ud4 :|: 
v[A2D2] a(a b)>a |vg2 ga/g/ f>e | v(d>f) (a<A) c>e | d2 BA/B/ v([A2D2] |  
[A2D2]) a(a b)>a |vg2 ga/g/ f>e | v(d>f) (a<A) c>e | vd2 ud4 :|
(:musicend:)



(:music:)
